X:1
T: Lappleijtsin efter Per Olov da edsin
R: Springlek
S: Perjos Lars Halvarsson|utlärd av Perjos Lars Halvarsson
Z: Karin Arén
N: Finns också här: +, +
N: EÖ nr 371
M: 3/4
L: 1/8
K: D
|: A>c A2 (c>d) | (e<f) f2 e>u(c | A)>v(c A2) (c>d) |1 (e<f) ud4 :|2 (e<f) ud3 v(A |: 
d)>(e Tfe) f<g | v(a<b) (a^g) a>a | (a<b) (a^g) a>a| (a<b) (a^g) a>e |
vf2 (fd) e>f | (3v(gag) (3(fdf) e>u(c | A)>v(c A2) (c>d) | (e<f) ud4 :|

